X:66
T:Taking Out The Trash
M:6/8
L:1/8
C:Brad Maloney
R:Jig
K:D
~d3 AFD | GBA  FED | FBB dBB |  edc dcB |
~d3 AFD | GBA  FED | FAB d~B2 |  edc d3 :|
|: ~a3 fdA | gdB fdA | ~a3 fdA | ^cd^d e^ef |
 aba fdA|  gBB fAA |FAB dcA |  edc d3 :|
